icons/modern/ice-cream.svg

<svg width="32" height="32" viewBox="0 0 32 32" fill="none" xmlns="http://www.w3.org/2000/svg">
<path d="M26.0899 3.89844L19.9299 11.7405" stroke="url(#paint0_linear_18_30281)" stroke-width="1.75" stroke-linecap="round"/>
<path d="M29.0183 7.96655L20.9697 12.4337" stroke="url(#paint1_linear_18_30281)" stroke-width="1.75" stroke-linecap="round"/>
<circle cx="8.83952" cy="17.75" r="6.75" fill="#8C604D"/>
<circle cx="8.83952" cy="17.75" r="6.75" fill="url(#paint2_radial_18_30281)"/>
<circle cx="8.83952" cy="17.75" r="6.75" fill="url(#paint3_radial_18_30281)"/>
<circle cx="22.2602" cy="17.625" r="6.75" fill="url(#paint4_radial_18_30281)"/>
<circle cx="22.2602" cy="17.625" r="6.75" fill="url(#paint5_radial_18_30281)"/>
<g filter="url(#filter0_f_18_30281)">
<path d="M21.8438 9.3125L25.9062 4.09375" stroke="url(#paint6_linear_18_30281)" stroke-width="0.75" stroke-linecap="round"/>
</g>
<g filter="url(#filter1_f_18_30281)">
<path d="M21.9062 9.4375L26.2188 3.90625" stroke="url(#paint7_linear_18_30281)" stroke-width="0.5" stroke-linecap="round"/>
</g>
<g filter="url(#filter2_f_18_30281)">
<path d="M23.1562 11.125L29.125 7.8125" stroke="url(#paint8_linear_18_30281)" stroke-width="0.5" stroke-linecap="round"/>
</g>
<g filter="url(#filter3_f_18_30281)">
<path d="M22.875 11.2188L29.1875 7.875" stroke="url(#paint9_linear_18_30281)" stroke-width="0.75" stroke-linecap="round"/>
</g>
<circle cx="16" cy="14.9219" r="8.07812" fill="url(#paint10_radial_18_30281)"/>
<circle cx="16" cy="14.9219" r="8.07812" fill="url(#paint11_linear_18_30281)"/>
<circle cx="16" cy="14.9219" r="8.07812" fill="url(#paint12_radial_18_30281)"/>
<path d="M2.72242 21.0415H13.3944H17.5437H28.2156C28.8377 21.0415 29.1855 21.7515 28.7957 22.2364C27.3125 24.4062 25.8438 25.9375 23.1562 27.3597C22.5868 27.7097 21.9848 28.1856 21.6405 28.7585L21.5055 28.9831C21.1439 29.5848 20.4933 29.9529 19.7913 29.9529H17.5437H13.3944H11.1467C10.4447 29.9529 9.79409 29.5848 9.43248 28.9831L9.29752 28.7585C8.9532 28.1856 8.47091 27.7097 7.90144 27.3597C5.21875 25.9062 3.8125 24.625 2.14234 22.2364C1.75254 21.7515 2.10027 21.0415 2.72242 21.0415Z" fill="url(#paint13_linear_18_30281)"/>
<path d="M2.72242 21.0415H13.3944H17.5437H28.2156C28.8377 21.0415 29.1855 21.7515 28.7957 22.2364C27.3125 24.4062 25.8438 25.9375 23.1562 27.3597C22.5868 27.7097 21.9848 28.1856 21.6405 28.7585L21.5055 28.9831C21.1439 29.5848 20.4933 29.9529 19.7913 29.9529H17.5437H13.3944H11.1467C10.4447 29.9529 9.79409 29.5848 9.43248 28.9831L9.29752 28.7585C8.9532 28.1856 8.47091 27.7097 7.90144 27.3597C5.21875 25.9062 3.8125 24.625 2.14234 22.2364C1.75254 21.7515 2.10027 21.0415 2.72242 21.0415Z" fill="url(#paint14_radial_18_30281)"/>
<path d="M2.72242 21.0415H13.3944H17.5437H28.2156C28.8377 21.0415 29.1855 21.7515 28.7957 22.2364C27.3125 24.4062 25.8438 25.9375 23.1562 27.3597C22.5868 27.7097 21.9848 28.1856 21.6405 28.7585L21.5055 28.9831C21.1439 29.5848 20.4933 29.9529 19.7913 29.9529H17.5437H13.3944H11.1467C10.4447 29.9529 9.79409 29.5848 9.43248 28.9831L9.29752 28.7585C8.9532 28.1856 8.47091 27.7097 7.90144 27.3597C5.21875 25.9062 3.8125 24.625 2.14234 22.2364C1.75254 21.7515 2.10027 21.0415 2.72242 21.0415Z" fill="url(#paint15_radial_18_30281)"/>
<path d="M2.72242 21.0415H13.3944H17.5437H28.2156C28.8377 21.0415 29.1855 21.7515 28.7957 22.2364C27.3125 24.4062 25.8438 25.9375 23.1562 27.3597C22.5868 27.7097 21.9848 28.1856 21.6405 28.7585L21.5055 28.9831C21.1439 29.5848 20.4933 29.9529 19.7913 29.9529H17.5437H13.3944H11.1467C10.4447 29.9529 9.79409 29.5848 9.43248 28.9831L9.29752 28.7585C8.9532 28.1856 8.47091 27.7097 7.90144 27.3597C5.21875 25.9062 3.8125 24.625 2.14234 22.2364C1.75254 21.7515 2.10027 21.0415 2.72242 21.0415Z" fill="url(#paint16_radial_18_30281)"/>
<path d="M2.72242 21.0415H13.3944H17.5437H28.2156C28.8377 21.0415 29.1855 21.7515 28.7957 22.2364C27.3125 24.4062 25.8438 25.9375 23.1562 27.3597C22.5868 27.7097 21.9848 28.1856 21.6405 28.7585L21.5055 28.9831C21.1439 29.5848 20.4933 29.9529 19.7913 29.9529H17.5437H13.3944H11.1467C10.4447 29.9529 9.79409 29.5848 9.43248 28.9831L9.29752 28.7585C8.9532 28.1856 8.47091 27.7097 7.90144 27.3597C5.21875 25.9062 3.8125 24.625 2.14234 22.2364C1.75254 21.7515 2.10027 21.0415 2.72242 21.0415Z" fill="url(#paint17_radial_18_30281)"/>
<path d="M17.9493 5.98328C17.9493 7.07861 17.2246 7.84562 15.966 7.84562C14.7075 7.84562 13.9828 7.07861 13.9828 5.98328C13.9828 4.88794 14.8707 4 15.966 4C17.0614 4 17.9493 4.88794 17.9493 5.98328Z" fill="url(#paint18_radial_18_30281)"/>
<path d="M17.9493 5.98328C17.9493 7.07861 17.2246 7.84562 15.966 7.84562C14.7075 7.84562 13.9828 7.07861 13.9828 5.98328C13.9828 4.88794 14.8707 4 15.966 4C17.0614 4 17.9493 4.88794 17.9493 5.98328Z" fill="url(#paint19_radial_18_30281)"/>
<g filter="url(#filter4_f_18_30281)">
<ellipse cx="26.5218" cy="3.66892" rx="0.328125" ry="0.28125" transform="rotate(38.7904 26.5218 3.66892)" fill="#DBAA7F"/>
</g>
<g filter="url(#filter5_f_18_30281)">
<ellipse cx="29.3539" cy="7.81256" rx="0.328125" ry="0.288648" transform="rotate(56.1571 29.3539 7.81256)" fill="#DBAA7F"/>
</g>
<defs>
<filter id="filter0_f_18_30281" x="20.4687" y="2.71875" width="6.81253" height="7.96875" filterUnits="userSpaceOnUse" color-interpolation-filters="sRGB">
<feFlood flood-opacity="0" result="BackgroundImageFix"/>
<feBlend mode="normal" in="SourceGraphic" in2="BackgroundImageFix" result="shape"/>
<feGaussianBlur stdDeviation="0.5" result="effect1_foregroundBlur_18_30281"/>
</filter>
<filter id="filter1_f_18_30281" x="21.4062" y="3.40625" width="5.31253" height="6.53125" filterUnits="userSpaceOnUse" color-interpolation-filters="sRGB">
<feFlood flood-opacity="0" result="BackgroundImageFix"/>
<feBlend mode="normal" in="SourceGraphic" in2="BackgroundImageFix" result="shape"/>
<feGaussianBlur stdDeviation="0.125" result="effect1_foregroundBlur_18_30281"/>
</filter>
<filter id="filter2_f_18_30281" x="22.6562" y="7.3125" width="6.96884" height="4.3125" filterUnits="userSpaceOnUse" color-interpolation-filters="sRGB">
<feFlood flood-opacity="0" result="BackgroundImageFix"/>
<feBlend mode="normal" in="SourceGraphic" in2="BackgroundImageFix" result="shape"/>
<feGaussianBlur stdDeviation="0.125" result="effect1_foregroundBlur_18_30281"/>
</filter>
<filter id="filter3_f_18_30281" x="21.4999" y="6.49988" width="9.06264" height="6.09399" filterUnits="userSpaceOnUse" color-interpolation-filters="sRGB">
<feFlood flood-opacity="0" result="BackgroundImageFix"/>
<feBlend mode="normal" in="SourceGraphic" in2="BackgroundImageFix" result="shape"/>
<feGaussianBlur stdDeviation="0.5" result="effect1_foregroundBlur_18_30281"/>
</filter>
<filter id="filter4_f_18_30281" x="25.9612" y="3.11841" width="1.12122" height="1.10107" filterUnits="userSpaceOnUse" color-interpolation-filters="sRGB">
<feFlood flood-opacity="0" result="BackgroundImageFix"/>
<feBlend mode="normal" in="SourceGraphic" in2="BackgroundImageFix" result="shape"/>
<feGaussianBlur stdDeviation="0.125" result="effect1_foregroundBlur_18_30281"/>
</filter>
<filter id="filter5_f_18_30281" x="28.8024" y="7.24609" width="1.10292" height="1.13293" filterUnits="userSpaceOnUse" color-interpolation-filters="sRGB">
<feFlood flood-opacity="0" result="BackgroundImageFix"/>
<feBlend mode="normal" in="SourceGraphic" in2="BackgroundImageFix" result="shape"/>
<feGaussianBlur stdDeviation="0.125" result="effect1_foregroundBlur_18_30281"/>
</filter>
<linearGradient id="paint0_linear_18_30281" x1="21.8125" y1="9.5" x2="26.375" y2="3.89844" gradientUnits="userSpaceOnUse">
<stop stop-color="#F0AF78"/>
<stop offset="1" stop-color="#BC8755"/>
</linearGradient>
<linearGradient id="paint1_linear_18_30281" x1="23.4295" y1="11.1574" x2="25.1032" y2="6.444" gradientUnits="userSpaceOnUse">
<stop stop-color="#D9A26A"/>
<stop offset="0.445907" stop-color="#DC9B60"/>
<stop offset="1" stop-color="#BC8755"/>
</linearGradient>
<radialGradient id="paint2_radial_18_30281" cx="0" cy="0" r="1" gradientUnits="userSpaceOnUse" gradientTransform="translate(4.625 15.5625) rotate(109.44) scale(4.50694 2.85237)">
<stop stop-color="#AB8171"/>
<stop offset="1" stop-color="#AA8172" stop-opacity="0"/>
</radialGradient>
<radialGradient id="paint3_radial_18_30281" cx="0" cy="0" r="1" gradientUnits="userSpaceOnUse" gradientTransform="translate(9.5625 20.875) rotate(90) scale(4.3125 7.05059)">
<stop stop-color="#4D4637"/>
<stop offset="1" stop-color="#5B5143" stop-opacity="0"/>
</radialGradient>
<radialGradient id="paint4_radial_18_30281" cx="0" cy="0" r="1" gradientUnits="userSpaceOnUse" gradientTransform="translate(26.0625 15.8125) rotate(73.8557) scale(4.94501 7.25117)">
<stop stop-color="#FFB1B3"/>
<stop offset="0.354952" stop-color="#FFA7AB"/>
<stop offset="1" stop-color="#FF8F9D"/>
</radialGradient>
<radialGradient id="paint5_radial_18_30281" cx="0" cy="0" r="1" gradientUnits="userSpaceOnUse" gradientTransform="translate(21.25 21.0625) rotate(90) scale(3.3125 7.98831)">
<stop offset="0.159091" stop-color="#BD7575"/>
<stop offset="1" stop-color="#F28F8F" stop-opacity="0"/>
</radialGradient>
<linearGradient id="paint6_linear_18_30281" x1="26.1563" y1="3.9375" x2="24.0977" y2="10.4868" gradientUnits="userSpaceOnUse">
<stop stop-color="#D5966A" stop-opacity="0"/>
<stop offset="0.503685" stop-color="#F3AF74"/>
</linearGradient>
<linearGradient id="paint7_linear_18_30281" x1="25.9375" y1="3.875" x2="22.0625" y2="9.03125" gradientUnits="userSpaceOnUse">
<stop stop-color="#D09468"/>
<stop offset="1" stop-color="#F3B075"/>
</linearGradient>
<linearGradient id="paint8_linear_18_30281" x1="27.2813" y1="5.8916" x2="23.4063" y2="11.0479" gradientUnits="userSpaceOnUse">
<stop stop-color="#D09468"/>
<stop offset="1" stop-color="#F3B075"/>
</linearGradient>
<linearGradient id="paint9_linear_18_30281" x1="29.3104" y1="7.92653" x2="24.7482" y2="13.0566" gradientUnits="userSpaceOnUse">
<stop stop-color="#D5966A" stop-opacity="0"/>
<stop offset="0.503685" stop-color="#F3AF74"/>
</linearGradient>
<radialGradient id="paint10_radial_18_30281" cx="0" cy="0" r="1" gradientUnits="userSpaceOnUse" gradientTransform="translate(20.75 12.625) rotate(156.413) scale(9.68407 10.8233)">
<stop stop-color="#FFF0DE"/>
<stop offset="0.305629" stop-color="#FFE6C8"/>
<stop offset="0.667864" stop-color="#E9CFB2"/>
<stop offset="1" stop-color="#DDC3A6"/>
</radialGradient>
<linearGradient id="paint11_linear_18_30281" x1="16" y1="6.84375" x2="16" y2="23" gradientUnits="userSpaceOnUse">
<stop offset="0.756286" stop-color="#E3C9AC" stop-opacity="0"/>
<stop offset="0.87234" stop-color="#CAB193"/>
</linearGradient>
<radialGradient id="paint12_radial_18_30281" cx="0" cy="0" r="1" gradientUnits="userSpaceOnUse" gradientTransform="translate(14.9688 6.84375) rotate(88.3634) scale(1.0942 2.19545)">
<stop offset="0.550362" stop-color="#B49B7E"/>
<stop offset="1" stop-color="#BBA185" stop-opacity="0"/>
</radialGradient>
<linearGradient id="paint13_linear_18_30281" x1="15.469" y1="21.0415" x2="15.469" y2="29.9529" gradientUnits="userSpaceOnUse">
<stop offset="0.0584643" stop-color="#7FD4FF"/>
<stop offset="0.114572" stop-color="#69C0F9"/>
<stop offset="0.500316" stop-color="#6189FF"/>
<stop offset="0.703708" stop-color="#597CFF"/>
<stop offset="0.865019" stop-color="#427AFF"/>
<stop offset="1" stop-color="#716DFF"/>
</linearGradient>
<radialGradient id="paint14_radial_18_30281" cx="0" cy="0" r="1" gradientUnits="userSpaceOnUse" gradientTransform="translate(26.5 21.0415) rotate(90) scale(8.91136 16.625)">
<stop stop-color="#85EFFF"/>
<stop offset="0.612532" stop-color="#73C5FF" stop-opacity="0.39074"/>
<stop offset="1" stop-color="#67AAFF" stop-opacity="0"/>
</radialGradient>
<radialGradient id="paint15_radial_18_30281" cx="0" cy="0" r="1" gradientUnits="userSpaceOnUse" gradientTransform="translate(23.5 21.3125) rotate(90) scale(0.328125 8.03099)">
<stop stop-color="#91F7FF"/>
<stop offset="1" stop-color="#91F7FF" stop-opacity="0"/>
</radialGradient>
<radialGradient id="paint16_radial_18_30281" cx="0" cy="0" r="1" gradientUnits="userSpaceOnUse" gradientTransform="translate(26.625 26.875) rotate(56.1737) scale(3.70502 11.9958)">
<stop stop-color="#8E9AFF"/>
<stop offset="1" stop-color="#939CFF" stop-opacity="0"/>
</radialGradient>
<radialGradient id="paint17_radial_18_30281" cx="0" cy="0" r="1" gradientUnits="userSpaceOnUse" gradientTransform="translate(19.0625 28.625) rotate(90) scale(1.5625 7.5625)">
<stop stop-color="#4C9BFF"/>
<stop offset="1" stop-color="#4B98FF" stop-opacity="0"/>
</radialGradient>
<radialGradient id="paint18_radial_18_30281" cx="0" cy="0" r="1" gradientUnits="userSpaceOnUse" gradientTransform="translate(16.75 5.3125) rotate(135.881) scale(2.87296 2.96331)">
<stop stop-color="#FF6FB3"/>
<stop offset="0.480596" stop-color="#FE3E8B"/>
<stop offset="1" stop-color="#E64260"/>
</radialGradient>
<radialGradient id="paint19_radial_18_30281" cx="0" cy="0" r="1" gradientUnits="userSpaceOnUse" gradientTransform="translate(14.8125 5.5) rotate(35.5377) scale(1.07529 1.42752)">
<stop stop-color="#EF6175"/>
<stop offset="1" stop-color="#ED6374" stop-opacity="0"/>
</radialGradient>
</defs>
</svg>

<svg width="32" height="32" fill="none" xmlns="http://www.w3.org/2000/svg"><path d="m26.09 3.898-6.16 7.843" stroke="url(#a)" stroke-width="1.75" stroke-linecap="round"/><path d="m29.018 7.967-8.048 4.467" stroke="url(#b)" stroke-width="1.75" stroke-linecap="round"/><circle cx="8.84" cy="17.75" r="6.75" fill="#8C604D"/><circle cx="8.84" cy="17.75" r="6.75" fill="url(#c)"/><circle cx="8.84" cy="17.75" r="6.75" fill="url(#d)"/><circle cx="22.26" cy="17.625" r="6.75" fill="url(#e)"/><circle cx="22.26" cy="17.625" r="6.75" fill="url(#f)"/><g filter="url(#g)"><path d="m21.844 9.313 4.062-5.22" stroke="url(#h)" stroke-width=".75" stroke-linecap="round"/></g><g filter="url(#i)"><path d="m21.906 9.438 4.313-5.532" stroke="url(#j)" stroke-width=".5" stroke-linecap="round"/></g><g filter="url(#k)"><path d="m23.156 11.125 5.969-3.313" stroke="url(#l)" stroke-width=".5" stroke-linecap="round"/></g><g filter="url(#m)"><path d="m22.875 11.219 6.313-3.344" stroke="url(#n)" stroke-width=".75" stroke-linecap="round"/></g><circle cx="16" cy="14.922" r="8.078" fill="url(#o)"/><circle cx="16" cy="14.922" r="8.078" fill="url(#p)"/><circle cx="16" cy="14.922" r="8.078" fill="url(#q)"/><path d="M2.722 21.041h25.494c.622 0 .97.71.58 1.195-1.483 2.17-2.952 3.701-5.64 5.124-.57.35-1.171.826-1.515 1.399l-.135.224a2 2 0 0 1-1.715.97h-8.644a2 2 0 0 1-1.715-.97l-.134-.224a4.169 4.169 0 0 0-1.397-1.4c-2.682-1.453-4.088-2.734-5.759-5.123a.734.734 0 0 1 .58-1.195Z" fill="url(#r)"/><path d="M2.722 21.041h25.494c.622 0 .97.71.58 1.195-1.483 2.17-2.952 3.701-5.64 5.124-.57.35-1.171.826-1.515 1.399l-.135.224a2 2 0 0 1-1.715.97h-8.644a2 2 0 0 1-1.715-.97l-.134-.224a4.169 4.169 0 0 0-1.397-1.4c-2.682-1.453-4.088-2.734-5.759-5.123a.734.734 0 0 1 .58-1.195Z" fill="url(#s)"/><path d="M2.722 21.041h25.494c.622 0 .97.71.58 1.195-1.483 2.17-2.952 3.701-5.64 5.124-.57.35-1.171.826-1.515 1.399l-.135.224a2 2 0 0 1-1.715.97h-8.644a2 2 0 0 1-1.715-.97l-.134-.224a4.169 4.169 0 0 0-1.397-1.4c-2.682-1.453-4.088-2.734-5.759-5.123a.734.734 0 0 1 .58-1.195Z" fill="url(#t)"/><path d="M2.722 21.041h25.494c.622 0 .97.71.58 1.195-1.483 2.17-2.952 3.701-5.64 5.124-.57.35-1.171.826-1.515 1.399l-.135.224a2 2 0 0 1-1.715.97h-8.644a2 2 0 0 1-1.715-.97l-.134-.224a4.169 4.169 0 0 0-1.397-1.4c-2.682-1.453-4.088-2.734-5.759-5.123a.734.734 0 0 1 .58-1.195Z" fill="url(#u)"/><path d="M2.722 21.041h25.494c.622 0 .97.71.58 1.195-1.483 2.17-2.952 3.701-5.64 5.124-.57.35-1.171.826-1.515 1.399l-.135.224a2 2 0 0 1-1.715.97h-8.644a2 2 0 0 1-1.715-.97l-.134-.224a4.169 4.169 0 0 0-1.397-1.4c-2.682-1.453-4.088-2.734-5.759-5.123a.734.734 0 0 1 .58-1.195Z" fill="url(#v)"/><path d="M17.95 5.983c0 1.096-.725 1.863-1.984 1.863-1.258 0-1.983-.767-1.983-1.863a1.983 1.983 0 1 1 3.966 0Z" fill="url(#w)"/><path d="M17.95 5.983c0 1.096-.725 1.863-1.984 1.863-1.258 0-1.983-.767-1.983-1.863a1.983 1.983 0 1 1 3.966 0Z" fill="url(#x)"/><g filter="url(#y)"><ellipse cx="26.522" cy="3.669" rx=".328" ry=".281" transform="rotate(38.79 26.522 3.669)" fill="#DBAA7F"/></g><g filter="url(#z)"><ellipse cx="29.354" cy="7.813" rx=".328" ry=".289" transform="rotate(56.157 29.354 7.813)" fill="#DBAA7F"/></g><defs><radialGradient id="c" cx="0" cy="0" r="1" gradientUnits="userSpaceOnUse" gradientTransform="matrix(-1.5 4.25 -2.68976 -.94932 4.625 15.563)"><stop stop-color="#AB8171"/><stop offset="1" stop-color="#AA8172" stop-opacity="0"/></radialGradient><radialGradient id="d" cx="0" cy="0" r="1" gradientUnits="userSpaceOnUse" gradientTransform="matrix(0 4.3125 -7.05059 0 9.563 20.875)"><stop stop-color="#4D4637"/><stop offset="1" stop-color="#5B5143" stop-opacity="0"/></radialGradient><radialGradient id="e" cx="0" cy="0" r="1" gradientUnits="userSpaceOnUse" gradientTransform="matrix(1.375 4.75 -6.96522 2.01624 26.063 15.813)"><stop stop-color="#FFB1B3"/><stop offset=".355" stop-color="#FFA7AB"/><stop offset="1" stop-color="#FF8F9D"/></radialGradient><radialGradient id="f" cx="0" cy="0" r="1" gradientUnits="userSpaceOnUse" gradientTransform="matrix(0 3.3125 -7.98831 0 21.25 21.063)"><stop offset=".159" stop-color="#BD7575"/><stop offset="1" stop-color="#F28F8F" stop-opacity="0"/></radialGradient><radialGradient id="o" cx="0" cy="0" r="1" gradientUnits="userSpaceOnUse" gradientTransform="matrix(-8.875 3.875 -4.33085 -9.91905 20.75 12.625)"><stop stop-color="#FFF0DE"/><stop offset=".306" stop-color="#FFE6C8"/><stop offset=".668" stop-color="#E9CFB2"/><stop offset="1" stop-color="#DDC3A6"/></radialGradient><radialGradient id="q" cx="0" cy="0" r="1" gradientUnits="userSpaceOnUse" gradientTransform="matrix(.03125 1.09375 -2.19455 .0627 14.969 6.844)"><stop offset=".55" stop-color="#B49B7E"/><stop offset="1" stop-color="#BBA185" stop-opacity="0"/></radialGradient><radialGradient id="s" cx="0" cy="0" r="1" gradientUnits="userSpaceOnUse" gradientTransform="matrix(0 8.91136 -16.625 0 26.5 21.041)"><stop stop-color="#85EFFF"/><stop offset=".613" stop-color="#73C5FF" stop-opacity=".391"/><stop offset="1" stop-color="#67AAFF" stop-opacity="0"/></radialGradient><radialGradient id="t" cx="0" cy="0" r="1" gradientUnits="userSpaceOnUse" gradientTransform="matrix(0 .32813 -8.03099 0 23.5 21.313)"><stop stop-color="#91F7FF"/><stop offset="1" stop-color="#91F7FF" stop-opacity="0"/></radialGradient><radialGradient id="u" cx="0" cy="0" r="1" gradientUnits="userSpaceOnUse" gradientTransform="rotate(56.174 -11.868 38.383) scale(3.70502 11.9958)"><stop stop-color="#8E9AFF"/><stop offset="1" stop-color="#939CFF" stop-opacity="0"/></radialGradient><radialGradient id="v" cx="0" cy="0" r="1" gradientUnits="userSpaceOnUse" gradientTransform="matrix(0 1.5625 -7.5625 0 19.063 28.625)"><stop stop-color="#4C9BFF"/><stop offset="1" stop-color="#4B98FF" stop-opacity="0"/></radialGradient><radialGradient id="w" cx="0" cy="0" r="1" gradientUnits="userSpaceOnUse" gradientTransform="rotate(135.881 7.299 6.05) scale(2.87296 2.96331)"><stop stop-color="#FF6FB3"/><stop offset=".481" stop-color="#FE3E8B"/><stop offset="1" stop-color="#E64260"/></radialGradient><radialGradient id="x" cx="0" cy="0" r="1" gradientUnits="userSpaceOnUse" gradientTransform="matrix(.875 .625 -.82973 1.16162 14.813 5.5)"><stop stop-color="#EF6175"/><stop offset="1" stop-color="#ED6374" stop-opacity="0"/></radialGradient><linearGradient id="a" x1="21.813" y1="9.5" x2="26.375" y2="3.898" gradientUnits="userSpaceOnUse"><stop stop-color="#F0AF78"/><stop offset="1" stop-color="#BC8755"/></linearGradient><linearGradient id="b" x1="23.43" y1="11.157" x2="25.103" y2="6.444" gradientUnits="userSpaceOnUse"><stop stop-color="#D9A26A"/><stop offset=".446" stop-color="#DC9B60"/><stop offset="1" stop-color="#BC8755"/></linearGradient><linearGradient id="h" x1="26.156" y1="3.938" x2="24.098" y2="10.487" gradientUnits="userSpaceOnUse"><stop stop-color="#D5966A" stop-opacity="0"/><stop offset=".504" stop-color="#F3AF74"/></linearGradient><linearGradient id="j" x1="25.938" y1="3.875" x2="22.063" y2="9.031" gradientUnits="userSpaceOnUse"><stop stop-color="#D09468"/><stop offset="1" stop-color="#F3B075"/></linearGradient><linearGradient id="l" x1="27.281" y1="5.892" x2="23.406" y2="11.048" gradientUnits="userSpaceOnUse"><stop stop-color="#D09468"/><stop offset="1" stop-color="#F3B075"/></linearGradient><linearGradient id="n" x1="29.31" y1="7.927" x2="24.748" y2="13.057" gradientUnits="userSpaceOnUse"><stop stop-color="#D5966A" stop-opacity="0"/><stop offset=".504" stop-color="#F3AF74"/></linearGradient><linearGradient id="p" x1="16" y1="6.844" x2="16" y2="23" gradientUnits="userSpaceOnUse"><stop offset=".756" stop-color="#E3C9AC" stop-opacity="0"/><stop offset=".872" stop-color="#CAB193"/></linearGradient><linearGradient id="r" x1="15.469" y1="21.041" x2="15.469" y2="29.953" gradientUnits="userSpaceOnUse"><stop offset=".058" stop-color="#7FD4FF"/><stop offset=".115" stop-color="#69C0F9"/><stop offset=".5" stop-color="#6189FF"/><stop offset=".704" stop-color="#597CFF"/><stop offset=".865" stop-color="#427AFF"/><stop offset="1" stop-color="#716DFF"/></linearGradient><filter id="g" x="20.469" y="2.719" width="6.813" height="7.969" filterUnits="userSpaceOnUse" color-interpolation-filters="sRGB"><feFlood flood-opacity="0" result="BackgroundImageFix"/><feBlend in="SourceGraphic" in2="BackgroundImageFix" result="shape"/><feGaussianBlur stdDeviation=".5" result="effect1_foregroundBlur_18_30281"/></filter><filter id="i" x="21.406" y="3.406" width="5.313" height="6.531" filterUnits="userSpaceOnUse" color-interpolation-filters="sRGB"><feFlood flood-opacity="0" result="BackgroundImageFix"/><feBlend in="SourceGraphic" in2="BackgroundImageFix" result="shape"/><feGaussianBlur stdDeviation=".125" result="effect1_foregroundBlur_18_30281"/></filter><filter id="k" x="22.656" y="7.313" width="6.969" height="4.313" filterUnits="userSpaceOnUse" color-interpolation-filters="sRGB"><feFlood flood-opacity="0" result="BackgroundImageFix"/><feBlend in="SourceGraphic" in2="BackgroundImageFix" result="shape"/><feGaussianBlur stdDeviation=".125" result="effect1_foregroundBlur_18_30281"/></filter><filter id="m" x="21.5" y="6.5" width="9.063" height="6.094" filterUnits="userSpaceOnUse" color-interpolation-filters="sRGB"><feFlood flood-opacity="0" result="BackgroundImageFix"/><feBlend in="SourceGraphic" in2="BackgroundImageFix" result="shape"/><feGaussianBlur stdDeviation=".5" result="effect1_foregroundBlur_18_30281"/></filter><filter id="y" x="25.961" y="3.118" width="1.121" height="1.101" filterUnits="userSpaceOnUse" color-interpolation-filters="sRGB"><feFlood flood-opacity="0" result="BackgroundImageFix"/><feBlend in="SourceGraphic" in2="BackgroundImageFix" result="shape"/><feGaussianBlur stdDeviation=".125" result="effect1_foregroundBlur_18_30281"/></filter><filter id="z" x="28.802" y="7.246" width="1.103" height="1.133" filterUnits="userSpaceOnUse" color-interpolation-filters="sRGB"><feFlood flood-opacity="0" result="BackgroundImageFix"/><feBlend in="SourceGraphic" in2="BackgroundImageFix" result="shape"/><feGaussianBlur stdDeviation=".125" result="effect1_foregroundBlur_18_30281"/></filter></defs></svg>
